static/img/pointing-arrow.svg

<svg xmlns="http://www.w3.org/2000/svg" width="132" height="72" fill="none" xmlns:v="https://vecta.io/nano"><g clip-path="url(#A)"><path fill-rule="evenodd" d="M130.487 2.11189c-8.493-2.918186-19.74-2.667609-31.9171-.13593C86.3564 4.51518 73.0424 9.38344 60.318 15.8821S35.4133 30.5333 25.4846 39.6687c-8.4787 7.8014-15.371 16.371-19.52609 25.2932L3.46765 53.2193c-.1719-.8104-.96821-1.328-1.7786-1.1561s-1.327996.9682-1.156094 1.7786L4.0281 70.3189c.044.2233.13837.4341.27506.6154.12346.1638.28144.3036.46804.4071.15649.087.32615.1447.50066.1716.16145.0251.32292.023.4788-.0035.03025-.0051.06043-.0112.09049-.0182l14.99995-3.5c.8068-.1883 1.3082-.9949 1.1199-1.8016s-.9948-1.3082-1.8016-1.12L7.92533 67.9244c3.81357-9.0388 10.73227-17.8973 19.59057-26.048 9.6964-8.9217 21.6417-16.9258 34.1666-23.3226S87.2692 7.38955 99.1806 4.91315c11.9474-2.48394 22.5754-2.6292 30.3324.03594.783.2692 1.636-.14771 1.906-.93118s-.148-1.63682-.932-1.90602z" fill="#000"/></g><defs><clipPath id="A"><path fill="#fff" d="M0 0h132v72H0z"/></clipPath></defs></svg>

<svg width="132" height="72" viewBox="0 0 132 72" fill="none" xmlns="http://www.w3.org/2000/svg">
<g clip-path="url(#clip0)">
<path fill-rule="evenodd" clip-rule="evenodd" d="M130.487 2.11189C121.994 -0.806296 110.747 -0.555719 98.5699 1.97596C86.3564 4.51518 73.0424 9.38344 60.318 15.8821C47.593 22.3811 35.4133 30.5333 25.4846 39.6687C17.0059 47.4701 10.1136 56.0397 5.95851 64.9619L3.46765 53.2193C3.29575 52.4089 2.49944 51.8913 1.68905 52.0632C0.878655 52.2351 0.361054 53.0314 0.532956 53.8418L4.0281 70.3189C4.0721 70.5422 4.16647 70.753 4.30316 70.9343C4.42662 71.0981 4.5846 71.2379 4.7712 71.3414C4.92769 71.4284 5.09735 71.4861 5.27186 71.513C5.43331 71.5381 5.59478 71.536 5.75066 71.5095C5.78091 71.5044 5.81109 71.4983 5.84115 71.4913L20.8411 67.9913C21.6479 67.803 22.1493 66.9964 21.961 66.1897C21.7728 65.3829 20.9662 64.8815 20.1594 65.0697L7.92533 67.9244C11.7389 58.8856 18.6576 50.0271 27.5159 41.8764C37.2123 32.9547 49.1576 24.9506 61.6825 18.5538C74.2081 12.1567 87.2692 7.38955 99.1806 4.91315C111.128 2.42921 121.756 2.28395 129.513 4.94909C130.296 5.21829 131.149 4.80138 131.419 4.01791C131.688 3.23444 131.271 2.38109 130.487 2.11189Z" fill="black"/>
</g>
<defs>
<clipPath id="clip0">
<rect width="132" height="72" fill="white"/>
</clipPath>
</defs>
</svg>
